X: 29361
T: Newmarket
R: polka
M: 2/4
K: Amajor
|:E>E Ec|BA FA|E2 Ec|BA A2|
E>E Ec|BA FA|E2 e>c|1 BA A2:|2 BA A>B||
ce B>c|BA FA|ce B>c|BA A>B|
ce B>c|BA FA|E>E Ec|BA A>B|
ce B>c|BA FA|ce Bc/e/|fe cB|
ce B>c|BA FA|Ez e>c|BA A2||

